packages/foundations/assets/icons/functional/images/transportation/taxi_32_inverted.svg

<svg width="32" height="32" viewBox="0 0 32 32" fill="none" xmlns="http://www.w3.org/2000/svg">
<g clip-path="url(#clip0_2214_6766)">
<path fill-rule="evenodd" clip-rule="evenodd" d="M22.4462 6.57505C23.6945 6.57505 24.79 7.38602 25.1628 8.56321L26.6341 14.425H29.025C29.5375 14.425 29.932 14.7811 29.9857 15.2747L29.992 16.391C29.992 16.9035 29.6186 17.425 29.025 17.4238L27.8342 17.4245C27.869 17.7401 27.8475 18.3244 27.7699 19.1774L27.4273 22.7348C27.3163 23.8827 26.7599 24.7242 25.8084 25.0988L25.8078 27.1431C25.8078 27.5889 25.8084 28.4251 24.5258 28.4251H23.4897C22.2071 28.4251 22.2078 27.5889 22.2078 27.1431L22.2071 25.499C20.1411 25.6824 18.0747 25.7741 16.0078 25.7741C13.9409 25.7741 11.874 25.6824 9.80706 25.499L9.80776 27.1431C9.80776 27.5889 9.80776 28.4251 8.52581 28.4251H7.4897C6.20776 28.4251 6.20776 27.5889 6.20776 27.1431L6.20672 25.1304C5.31023 24.8046 4.7439 24.0156 4.58514 22.9395L4.22659 19.2769C4.14071 18.3303 4.11512 17.7126 4.14983 17.4238L2.97506 17.425C2.42206 17.425 2.00806 16.943 2.00806 16.391V15.391C2.00806 14.838 2.42206 14.425 2.97506 14.425H5.38106L6.8044 8.73382C7.10717 7.52277 8.21552 6.57505 9.56931 6.57505H22.4462ZM12.8911 19.4318C12.3938 19.4895 12.0078 19.9122 12.0078 20.4251C12.0078 20.9379 12.3938 21.3606 12.8911 21.4183H19.1244C19.6217 21.3606 20.0078 20.9379 20.0078 20.4251C20.0078 19.9122 19.6217 19.4895 19.1244 19.4318H12.8911ZM6.89114 18.4317C6.3938 18.4894 6.00776 18.9121 6.00776 19.425C6.00776 19.9378 6.3938 20.3605 6.89114 20.4182H9.12438C9.62172 20.3605 10.0078 19.9378 10.0078 19.425C10.0078 18.9121 9.62172 18.4894 9.12438 18.4317H6.89114ZM22.8911 18.4317C22.3938 18.4894 22.0078 18.9121 22.0078 19.425C22.0078 19.9378 22.3938 20.3605 22.8911 20.4182H25.1244C25.6217 20.3605 26.0078 19.9378 26.0078 19.425C26.0078 18.9121 25.6217 18.4894 25.1244 18.4317H22.8911ZM9.56931 8.27505C9.0822 8.27505 8.6528 8.58107 8.48895 9.0308L7.13306 14.425H24.8811L23.5619 9.14613C23.4437 8.67357 23.0078 8.27505 22.4462 8.27505H9.56931ZM18.9922 3.57495C19.4616 3.57495 19.8422 3.95551 19.8422 4.42495C19.8422 4.85828 19.4819 5.27495 19.0078 5.27495H12.9922C12.5227 5.27495 12.1422 4.89439 12.1422 4.42495C12.1422 3.99162 12.4733 3.57495 13.0078 3.57495H18.9922Z" fill="#1A1C1F"/>
</g>
<defs>
<clipPath id="clip0_2214_6766">
<rect width="32" height="32" fill="white"/>
</clipPath>
</defs>
</svg>

<svg xmlns="http://www.w3.org/2000/svg" width="32" height="32" fill="none"><g clip-path="url(#a)"><path fill="#1A1C1F" fill-rule="evenodd" d="M22.446 6.575a2.85 2.85 0 0 1 2.717 1.988l1.471 5.862h2.391a.94.94 0 0 1 .96.85l.007 1.116c0 .513-.373 1.034-.967 1.033h-1.19q.05.474-.065 1.753l-.343 3.558c-.11 1.148-.667 1.99-1.619 2.364v2.044c0 .446 0 1.282-1.282 1.282H23.49c-1.283 0-1.282-.836-1.282-1.282V25.5a70 70 0 0 1-12.4 0v1.644c0 .446 0 1.282-1.282 1.282H7.49c-1.282 0-1.282-.836-1.282-1.282l-.001-2.013c-.897-.325-1.463-1.114-1.622-2.19l-.358-3.663q-.13-1.42-.077-1.853l-1.175.001c-.553 0-.967-.482-.967-1.034v-1c0-.553.414-.966.967-.966h2.406l1.423-5.691A2.86 2.86 0 0 1 9.57 6.575zm-9.555 12.857a1 1 0 0 0 0 1.986h6.233a1 1 0 0 0 0-1.986zm-6-1a1 1 0 0 0 0 1.986h2.233a1 1 0 0 0 0-1.986zm16 0a1 1 0 0 0 0 1.986h2.233a1 1 0 0 0 0-1.986zM9.57 8.275a1.15 1.15 0 0 0-1.08.756l-1.356 5.394h17.748l-1.32-5.279a1.155 1.155 0 0 0-1.115-.871zm9.423-4.7c.47 0 .85.38.85.85 0 .433-.36.85-.834.85h-6.016a.85.85 0 1 1 .016-1.7z" clip-rule="evenodd"/></g><defs><clipPath id="a"><path fill="#fff" d="M0 0h32v32H0z"/></clipPath></defs></svg>
